app/dist/common/images/dominion-energy.svg

<svg height="18" width="18" xmlns="http://www.w3.org/2000/svg"><path d="m0 0h18v18h-18z" fill="#2c6cbe"/><path d="m12.344 4.806c-.979-.751-2.265-1.024-3.508-.62l-2.836.924v1.76zm1.39 1.924a4.264 4.264 0 0 0 -.891-1.47l-6.843 2.226v1.76zm.196 2.314a4.49 4.49 0 0 0 -.034-1.75l-7.896 2.569v1.76l7.93-2.58zm-2.758 3.273c1.243-.404 2.166-1.395 2.582-2.6l-7.754 2.522v1.761z" fill="#fff"/></svg>

<!-- by TradingView --><svg width="18" height="18" xmlns="http://www.w3.org/2000/svg"><path fill="#2C6CBE" d="M0 0h18v18H0z"/><path d="M12.344 4.806c-.979-.751-2.265-1.024-3.508-.62L6 5.11v1.76l6.344-2.064zM13.734 6.73a4.264 4.264 0 00-.891-1.47L6 7.486v1.76l7.734-2.516zM13.93 9.044a4.49 4.49 0 00-.034-1.75L6 9.863v1.76l7.93-2.58zM11.172 12.317c1.243-.404 2.166-1.395 2.582-2.6L6 12.239V14l5.172-1.683z" fill="#fff"/></svg>
